!!!OTL@@DE: Der Tannenbaum
!!!COM: Volksweise
!!!ODT: 1799
!!!OMD: M&auml;ssig
!!!ONB: Nach dem Volksliede umgeformt von August Zarnack
!!!LDT: 1819
!!!OCL: Erk, Ludwig
!!!GCO: Deutscher Liederschatz, Band 1
**kern	**kern	**kern
*staff3	*staff2	*staff1
*Ipiano	*Ipiano	*Ivox
*>[A,A,B]	*>[A,A,B]	*>[A,A,B]
*>norep[A,B]	*>norep[A,B]	*>norep[A,B]
*>A	*>A	*>A
*clefF4	*clefG2	*clefG2
*k[f#]	*k[f#]	*k[f#]
*G:	*G:	*G:
*M3/4	*M3/4	*M3/4
*MM92	*MM92	*MM92
4D\	4d/	4d/
=1	=1	=1
8.GG/ 8.D/L	8.B/ 8.g/L	8.g/
16GG/ 16D/Jk	16B/ 16g/Jk	16g/
4GG;/ 4D;/	4B;/ 4g;/	4g;/
4D\	4d/ 4f#/ 4a/	4a/
=2	=2	=2
8.GG/ 8.G/L	8.d/ 8.g/ 8.b/L	8.b\
16GG/ 16G/Jk	16d/ 16g/ 16b/Jk	16b\
4.GG/ 4.G/	4.d/ 4.g/ 4.b/	4.b\
8BB/	8d/ 8g/	8g/
=3	=3	=3
*	*^	*
8C/L	8a/L	2e\	8a/
8BB/J	8g#/ 8b/J	.	8b\
4AA/	4a/ 4cc/	.	4cc\
*	*v	*v	*
4D\	4c/ 4d/ 4f#/	4f#/
=4	=4	=4
*	*^	*
4D\	4c/ 4a/	2d\	4a/
4GG/	4B/ 4g/	.	4g/
*	*v	*v	*
=:|!	=:|!	=:|!
*>B	*>B	*>B
4r	8r	8r
.	8g/ 8b/	8b\
=5	=5	=5
4r	8b\ 8dd\L	8dd\
.	8g\ 8b\J	8b\
8r	4.cc\ 4.ee\	4.ee\
(8GG/L	.	.
8G/	.	.
8GG/J)	8b\ 8dd\	8dd\
=6	=6	=6
4.D\	8b\ (8dd\L	8dd\
.	8a\ 8cc\J)	8cc\
.	4.a\ 4.cc\	4.cc\
(8F#\L	.	.
8A\	.	.
8F#\J)	8a\ 8cc\	8cc\
=7	=7	=7
(4.D\	8a/ 8cc/L	8cc\
.	8f#/ 8a/J	8a/
.	4.b\ 4.dd\	4.dd\
8E\L	.	.
8F#\	.	.
8D\J)	8a\ 8cc\	8cc\
=8	=8	=8
*	*^	*
[4G\	8a/ (8cc/L	2d\	8cc\
.	8g/ 8b/J)	.	8b\
8G;\L]	4g;/ 4b;/	.	4b;\
8D\	.	.	.
8BB\	4d/	4d\	4d/
*	*v	*v	*
8D\J	.	.
=9	=9	=9
8.GG/ 8.D/L	8.B/ 8.g/L	8.g/
16GG/ 16D/Jk	16B/ 16g/Jk	16g/
4GG;/ 4D;/	4B;/ 4g;/	4g;/
4D\ 4F#\	4d/ 4a/	4a/
=10	=10	=10
8.GG/ 8.G/L	8.d/ 8.g/ 8.b/L	8.b\
16GG/ 16G/Jk	16d/ 16g/ 16b/Jk	16b\
4.GG/ 4.G/	4.d/ 4.g/ 4.b/	4.b\
8BB/	8d/ 8g/	8g/
=11	=11	=11
*	*^	*
8C/L	8a/L	2e\	8a/
8BB/J	8g#/ 8b/J	.	8b\
4AA/	4a/ 4cc/	.	4cc\
*	*v	*v	*
4D\	4c/ 4d/ 4f#/	4f#/
=12	=12	=12
*	*^	*
4D\	4c/ 4a/	2d\	4a/
4GG;/	4B;/ 4g;/	.	4g;/
*	*v	*v	*
==	==	==
*-	*-	*-
!!!ENC: Craig Stuart Sapp
!!!END: 2004/05/27/
!!!EFL: 084/651
